src/img/cash.svg

<svg class="method-ico" xmlns="http://www.w3.org/2000/svg" viewBox="0 0 225.33 227.56"><title>Ресурс 92</title><g id="Слой_2" data-name="Слой 2"><g id="_1" data-name="1"><path d="M214.7 103.21v-45.9a24.28 24.28 0 0 0-24.26-24.26h-12.63L163.94 8.11A15.76 15.76 0 0 0 142.51 2L86.64 33.05H24.26A24.28 24.28 0 0 0 0 57.31v146a24.29 24.29 0 0 0 24.26 24.26h166.18a24.29 24.29 0 0 0 24.26-24.27v-39.88h10.63v-60.21zm-25.86-50.32l-3-5.34h4.56a9.68 9.68 0 0 1 8.64 5.34zM51 52.9H27a7.25 7.25 0 1 0 0 14.5h173.2v35.81h-28.1a29.23 29.23 0 0 0-29.19 29.2v1.83a29.23 29.23 0 0 0 29.19 29.19h28.1v39.87a9.76 9.76 0 0 1-9.76 9.75H24.26a9.76 9.76 0 0 1-9.76-9.75v-146a9.77 9.77 0 0 1 9.76-9.76h36.3zm106.46 81.33v-1.83a14.7 14.7 0 0 1 14.68-14.69h38.73v31.21H172.1a14.7 14.7 0 0 1-14.68-14.69zM80.81 52.89l68.75-38.23a1.2 1.2 0 0 1 .92-.08 1.27 1.27 0 0 1 .77.57l21 37.74z"/><path d="M188.13 133.67a12.39 12.39 0 0 0-12.39-12.39 12.39 12.39 0 1 0 12.39 12.39z"/></g></g><style>.method-ico{fill:#f90}</style></svg>

<svg class="method-ico" xmlns="http://www.w3.org/2000/svg" viewBox="0 0 225.33 227.56"><title>Ресурс 92</title><g id="Слой_2" data-name="Слой 2"><g id="_1" data-name="1"><path d="M214.7,103.21V57.31a24.28,24.28,0,0,0-24.26-24.26H177.81L163.94,8.11A15.76,15.76,0,0,0,142.51,2L86.64,33.05H24.26A24.28,24.28,0,0,0,0,57.31v146a24.29,24.29,0,0,0,24.26,24.26H190.44A24.29,24.29,0,0,0,214.7,203.3V163.42h10.63V103.21ZM188.84,52.89l-3-5.34h4.56a9.68,9.68,0,0,1,8.64,5.34ZM51,52.9h-24a7.25,7.25,0,1,0,0,14.5H200.2v35.81H172.1a29.23,29.23,0,0,0-29.19,29.2v1.83a29.23,29.23,0,0,0,29.19,29.19h28.1V203.3a9.76,9.76,0,0,1-9.76,9.75H24.26a9.76,9.76,0,0,1-9.76-9.75v-146a9.77,9.77,0,0,1,9.76-9.76h36.3Zm106.46,81.33V132.4a14.7,14.7,0,0,1,14.68-14.69h38.73v31.21H172.1A14.7,14.7,0,0,1,157.42,134.23ZM80.81,52.89l68.75-38.23h0a1.2,1.2,0,0,1,.92-.08,1.27,1.27,0,0,1,.77.57l21,37.74Z"/><path d="M188.13,133.67a12.39,12.39,0,0,0-12.39-12.39h0a12.39,12.39,0,1,0,12.39,12.39Z"/></g></g>
<style>
	.method-ico {
		fill: #f90;
	}
</style>
</svg>
